X: 7
T:Quickstep y Bontnewydd
T:The Pontnewydd Quickstep
M:6/8
L:1/8
Q:130
S:Cadw Twmpath Collection
R:Jig
A:Wales
Z:brian_martin12345@yahoo.com
K:D
A|Addd2e|fgff2g|afd dcd|feee2A|
Addd2e|fgff2g|afd gec|eddd2:||
a|afa afa|geg geg|fdf fdf|feee2A|
Addd2e|fgff2g|afd gec|eddd2:||
